!!!COM: Mozart, Wolfgang Amadeus
!!!OTL: Musikalische Würfelspiele, Kontre-Tänze
!!!SCA: K<sup>6</sup> Anh. C30.01 (K<sup>3</sup> Anh. 294d)
**kern	**kern
*staff2	*staff2
*clefF4	*clefG2
*M2/4	*M2/4
*MM110	*MM110
*>[A,A1,A,A2,B]	*>[A,A1,A,A2,B]
*>norep[A,A2,B]	*>norep[A,A2,B]
*>A	*>A
=142	=142
8C	8cc
16C	8g
16C	.
8C	8cc
8GG	8ee
=150	=150
16C	8gg
16E	.
16G	8ee
16E	.
4C	16cc
.	16ee
.	16gg
.	16ee
=131	=131
16GG	8ff
16D	.
16BB	4dd
16D	.
16GG	.
16D	.
16BB	8b
16D	.
=139	=139
16C	8cc
16G	.
16E	8ee
16G	.
16C	4g
16G	.
16E	.
16G	.
=147	=147
4D	16dd
.	16ee
.	16ff#
.	16gg
4F#	16aa
.	16ff#
.	16ee
.	16dd
=27	=27
4BB 4G	16aaQ
.	16gg
.	16ff#
.	16gg
4BB	16dd
.	16gg
.	16dd
.	16b
=143	=143
4C	8ee
.	8cc
4D	8a
.	8f#
=44	=44
*>A1	*>A1
4GG	4g 4b 4gg
16G	4r
16F	.
16E	.
16D	.
=44:|!	=44:|!
*>A2	*>A2
4GG	4g 4b 4gg
16GG	4r
16AA	.
16BB	.
16C#	.
=66||	=66||
*>B	*>B
4D	8ff#
.	16ff#
.	16aa
4D	8ddd
.	16aa
.	16ff#
=91	=91
16BB	4gg
16D	.
16G	.
16D	.
16BB	8bb
16GG	.
16AA	8r
16BB	.
=26	=26
4C	8ee
.	8cc
4C	8gg
.	8ee
=107	=107
16BB	8dd
16D	.
16G	4b
16D	.
16G	.
16F	.
16E	8g
16D	.
=94	=94
16C	8cc
16E	.
16G	8ee
16E	.
16C	8gg
16E	.
16G	8ee
16E	.
=80	=80
4C	8cc
.	8ee
4r	8ee
.	8ee
=109	=109
16GG	8dd
16D	.
16BB	4ff
16D	.
16GG	.
16D	.
16BB	8b
16D	.
=74	=74
4C	4cc
4CC	4c
==	==
*-	*-
